svgs/sharp-thin/warehouse.svg

<svg xmlns="http://www.w3.org/2000/svg" viewBox="0 0 640 512"><!--! Font Awesome Pro 6.5.2 by @fontawesome - https://fontawesome.com License - https://fontawesome.com/license (Commercial License) Copyright 2024 Fonticons, Inc. --><path d="M320 7.4l2.9 1.1 312 120 5.1 2V136 504v8H624v-8V141.5L320 24.6 16 141.5V504v8H0v-8V136v-5.5l5.1-2 312-120L320 7.4zM96 192h8H536h8v8V504v8h-8v0H104v0H96v-8V200v-8zm16 304H528V416H112v80zM528 304H112v96H528V304zm0-16V208H112v80H528z"/></svg>

<svg xmlns="http://www.w3.org/2000/svg" viewBox="0 0 640 512"><!--! Font Awesome Pro 6.6.0 by @fontawesome - https://fontawesome.com License - https://fontawesome.com/license (Commercial License) Copyright 2024 Fonticons, Inc. --><path d="M320 7.4l2.9 1.1 312 120 5.1 2 0 5.5 0 368 0 8-16 0 0-8 0-362.5L320 24.6 16 141.5 16 504l0 8L0 512l0-8L0 136l0-5.5 5.1-2 312-120L320 7.4zM96 192l8 0 432 0 8 0 0 8 0 304 0 8-8 0s0 0 0 0l-432 0s0 0 0 0l-8 0 0-8 0-304 0-8zm16 304l416 0 0-80-416 0 0 80zM528 304l-416 0 0 96 416 0 0-96zm0-16l0-80-416 0 0 80 416 0z"/></svg>
